public/images/facebook-footer.svg

<svg width="38" height="38" viewBox="0 0 38 38" fill="none" xmlns="http://www.w3.org/2000/svg">
<path d="M38 19.1161C38 8.55857 29.4934 0 19 0C8.50658 0 0 8.55857 0 19.1161C0 28.6575 6.94803 36.5659 16.0312 38V24.6419H11.207V19.1161H16.0312V14.9046C16.0312 10.1136 18.8678 7.46723 23.2078 7.46723C25.2866 7.46723 27.4609 7.84059 27.4609 7.84059V12.545H25.0651C22.7048 12.545 21.9688 14.0185 21.9688 15.5302V19.1161H27.2383L26.3959 24.6419H21.9688V38C31.052 36.5659 38 28.6575 38 19.1161Z" fill="#24A3FF"/>
</svg>

<svg width="38" height="38" fill="none" xmlns="http://www.w3.org/2000/svg"><path d="M38 19.116C38 8.56 29.493 0 19 0S0 8.559 0 19.116C0 28.657 6.948 36.566 16.031 38V24.642h-4.824v-5.526h4.824v-4.211c0-4.791 2.837-7.438 7.177-7.438 2.079 0 4.253.374 4.253.374v4.704h-2.396c-2.36 0-3.096 1.473-3.096 2.985v3.586h5.27l-.843 5.526h-4.427V38C31.052 36.566 38 28.657 38 19.116z" fill="#24A3FF"/></svg>
